X: 31
T: No_126_Buzzard_Dance_Song_(b).krn
N: Derived from No_126_Buzzard_Dance_Song_(b).krn
%%abc-version 2.0
%%abcx-abcm2ps-target-version 5.9.1 (29 Sep 2008)
%%abc-creator hum2abc beta
%%abcx-conversion-date 2019/03/15 08:38:45
%%humdrum-veritas 540248940
%%humdrum-veritas-data 1248372715
%%linebreak <none>
%%barnumbers 0
L: 1/16
M: 3/4
K: Ab clef=bass
[K:clef=bass][M:3/4]E,/E,3/E,2E,8 ]|:  
[M:2/4]G,3/G,/B,2 A,2G,2 | 
E,E,2D, D,2 z E, ||  
[M:3/4]E,3E, E,3D,D,4 ||  
[M:3/8]B,,/B,,3/B,,2B,,2 ||  
[M:2/4]E,/E,3/E,2E,4 :|]  



